icons/databaseB.svg

<svg width="24" height="24" viewBox="0 0 24 24" fill="none" xmlns="http://www.w3.org/2000/svg">
<path d="M12 12C16.4183 12 20 10.2091 20 8C20 5.79086 16.4183 4 12 4C7.58172 4 4 5.79086 4 8C4 10.2091 7.58172 12 12 12Z" fill="black"/>
<path fill-rule="evenodd" clip-rule="evenodd" d="M6.67856 5.84239C5.31057 6.52639 4.75 7.33255 4.75 8C4.75 8.66745 5.31057 9.47361 6.67856 10.1576C8.00168 10.8192 9.88205 11.25 12 11.25C14.118 11.25 15.9983 10.8192 17.3214 10.1576C18.6894 9.47361 19.25 8.66745 19.25 8C19.25 7.33255 18.6894 6.52639 17.3214 5.84239C15.9983 5.18083 14.118 4.75 12 4.75C9.88205 4.75 8.00168 5.18083 6.67856 5.84239ZM6.00774 4.50075C7.58004 3.7146 9.69967 3.25 12 3.25C14.3003 3.25 16.42 3.7146 17.9923 4.50075C19.5197 5.26447 20.75 6.45831 20.75 8C20.75 9.54169 19.5197 10.7355 17.9923 11.4992C16.42 12.2854 14.3003 12.75 12 12.75C9.69967 12.75 7.58004 12.2854 6.00774 11.4992C4.48029 10.7355 3.25 9.54169 3.25 8C3.25 6.45831 4.48029 5.26447 6.00774 4.50075Z" fill="black"/>
<path fill-rule="evenodd" clip-rule="evenodd" d="M5.6103 9.56413C5.85106 9.90119 5.77299 10.3696 5.43593 10.6104C4.95669 10.9527 4.75 11.4116 4.75 12.0001C4.75 12.4899 4.96967 12.9005 5.58809 13.4306C6.80242 14.4715 9.20031 15.2501 12 15.2501C14.7997 15.2501 17.1976 14.4715 18.4119 13.4306C19.0144 12.9142 19.25 12.4044 19.25 12.0001C19.25 11.5957 19.0144 11.0859 18.4119 10.5695C18.0974 10.2999 18.061 9.82646 18.3306 9.51196C18.6001 9.19747 19.0736 9.16105 19.3881 9.43062C20.1856 10.1142 20.75 11.0044 20.75 12.0001C20.75 12.9957 20.1856 13.8859 19.3881 14.5695C17.8024 15.9287 15.0003 16.7501 12 16.7501C8.99969 16.7501 6.19758 15.9287 4.61191 14.5695C3.83033 13.8996 3.25 13.1102 3.25 12.0001C3.25 10.9885 3.64331 10.0474 4.56407 9.38976C4.90113 9.149 5.36954 9.22707 5.6103 9.56413Z" fill="black"/>
<path fill-rule="evenodd" clip-rule="evenodd" d="M5.66944 13.5119C5.93901 13.8264 5.90259 14.2999 5.58809 14.5695C4.98562 15.0859 4.75 15.5956 4.75 16C4.75 16.661 5.31232 17.4676 6.68541 18.1542C8.01156 18.8173 9.8922 19.25 12 19.25C14.1078 19.25 15.9884 18.8173 17.3146 18.1542C18.6877 17.4676 19.25 16.661 19.25 16C19.25 15.5956 19.0144 15.0859 18.4119 14.5695C18.0974 14.2999 18.061 13.8264 18.3306 13.5119C18.6001 13.1974 19.0736 13.161 19.3881 13.4306C20.1856 14.1142 20.75 15.0044 20.75 16C20.75 17.539 19.5123 18.7324 17.9854 19.4958C16.4116 20.2828 14.2922 20.75 12 20.75C9.7078 20.75 7.58844 20.2828 6.01459 19.4958C4.48768 18.7324 3.25 17.539 3.25 16C3.25 15.0044 3.81438 14.1142 4.61191 13.4306C4.9264 13.161 5.39988 13.1974 5.66944 13.5119Z" fill="black"/>
</svg>

<svg xmlns="http://www.w3.org/2000/svg" fill="none" viewBox="0 0 24 24">
  <path fill="#000" d="M12 12c4.418 0 8-1.79 8-4s-3.582-4-8-4-8 1.79-8 4 3.582 4 8 4Z"/>
  <path fill="#000" fill-rule="evenodd" d="M6.679 5.842C5.31 6.526 4.75 7.332 4.75 8c0 .667.56 1.474 1.929 2.158 1.323.661 3.203 1.092 5.321 1.092s3.998-.43 5.321-1.092C18.69 9.474 19.25 8.668 19.25 8c0-.667-.56-1.474-1.929-2.158C15.998 5.181 14.118 4.75 12 4.75s-3.998.43-5.321 1.092Zm-.671-1.341C7.58 3.715 9.7 3.25 12 3.25s4.42.465 5.992 1.25c1.528.764 2.758 1.958 2.758 3.5s-1.23 2.736-2.758 3.5c-1.572.785-3.692 1.25-5.992 1.25s-4.42-.465-5.992-1.25C4.48 10.735 3.25 9.541 3.25 8s1.23-2.736 2.758-3.5Z" clip-rule="evenodd"/>
  <path fill="#000" fill-rule="evenodd" d="M5.61 9.564a.75.75 0 0 1-.174 1.046c-.48.343-.686.802-.686 1.39 0 .49.22.9.838 1.43C6.802 14.473 9.2 15.25 12 15.25s5.198-.778 6.412-1.82c.602-.516.838-1.026.838-1.43 0-.404-.236-.914-.838-1.43a.75.75 0 1 1 .976-1.14c.798.684 1.362 1.574 1.362 2.57 0 .996-.564 1.886-1.362 2.57C17.802 15.928 15 16.75 12 16.75s-5.802-.821-7.388-2.18C3.83 13.9 3.25 13.11 3.25 12c0-1.011.393-1.953 1.314-2.61a.75.75 0 0 1 1.046.174Z" clip-rule="evenodd"/>
  <path fill="#000" fill-rule="evenodd" d="M5.67 13.512a.75.75 0 0 1-.082 1.057c-.602.517-.838 1.027-.838 1.431 0 .661.562 1.468 1.935 2.154 1.327.663 3.207 1.096 5.315 1.096 2.108 0 3.988-.433 5.315-1.096 1.373-.686 1.935-1.493 1.935-2.154 0-.404-.236-.914-.838-1.43a.75.75 0 0 1 .976-1.14c.798.684 1.362 1.574 1.362 2.57 0 1.539-1.238 2.732-2.765 3.496-1.573.787-3.693 1.254-5.985 1.254-2.292 0-4.412-.467-5.985-1.254C4.488 18.732 3.25 17.539 3.25 16c0-.996.564-1.886 1.362-2.57a.75.75 0 0 1 1.057.082Z" clip-rule="evenodd"/>
</svg>
